!!!OTL: KEIN SCHOENERES FREIERES LEBEN
!!!ARE: Europa, Mitteleuropa, Deutschland, Thueringen; Westfalen
!!!SCT: B0444
!!!YEM: Copyright 1995, estate of Helmut Schaffrath.
**kern
*ICvox
*Ivox
*M6/8
*k[f#]
*G:
{8d
=1
8.b
16a
8g
8.a
16g
8f#
=2
4.g
4d}
{8d
=3
8e
8e
8e
8f#
8f#
8f#
=4
4.g
4r}
{8b
=5
8.a
16g
8f#
8.g
16f#
8e
=6
4f#
8a
4dd}
{8f#
=7
8e
8e
8e
8a
8g
8c#
=8
4.d
4r}
{8d
=9
8.d
16d
8d
8d
8f#
8g
=10
8a
8a
4.r}
{8d
=11
8a
8a
8a
8a
8b
8cc
=12
4.b
4r}
{8g
=13
8g
8g
8g
8g
8f#
8g
=14
8e
8cc
4.r}
{8cc
=15
8b
8a
8g
8a
8g
8f#
=16
4.dd}
{8ee
8cc
8a
=17
8g
8g
8g
8b
8a
8f#
=18
4g
4.r}
==
!!!AGN: Liebes - Lied, anti - Ehe
!!!ONB: ESAC (Essen Associative Code) Database: BOEHME
!!!AMT: compound duple
!!!AIN: vox
!!!EED: Helmut Schaffrath
!!!EEV: 1.0
*-
